X:1
T:Go Tell Aunt Rhody
C:Traditional American, 18th century
M:4/4
L:1/4
Q:1/4=92
K:G
|: D G G G | F E D2 | E E E E | D4 |
   D G G G | A B c2 | B A G A | G4 :|
